src/assets/icons/wave.svg

<svg width="18" height="18" fill="none" xmlns="http://www.w3.org/2000/svg"><path d="M1.5 4.5c.45.375.9.75 1.875.75 1.875 0 1.875-1.5 3.75-1.5 1.95 0 1.8 1.5 3.75 1.5 1.875 0 1.875-1.5 3.75-1.5.975 0 1.425.375 1.875.75M1.5 9c.45.375.9.75 1.875.75 1.875 0 1.875-1.5 3.75-1.5 1.95 0 1.8 1.5 3.75 1.5 1.875 0 1.875-1.5 3.75-1.5.975 0 1.425.375 1.875.75M1.5 13.5c.45.375.9.75 1.875.75 1.875 0 1.875-1.5 3.75-1.5 1.95 0 1.8 1.5 3.75 1.5 1.875 0 1.875-1.5 3.75-1.5.975 0 1.425.375 1.875.75" stroke="#000000" stroke-linecap="round" stroke-linejoin="round"/></svg>

<svg width="18" height="18" viewBox="0 0 18 18" fill="none" xmlns="http://www.w3.org/2000/svg">
<path d="M1.5 4.5C1.95 4.875 2.4 5.25 3.375 5.25C5.25 5.25 5.25 3.75 7.125 3.75C9.075 3.75 8.925 5.25 10.875 5.25C12.75 5.25 12.75 3.75 14.625 3.75C15.6 3.75 16.05 4.125 16.5 4.5" stroke="white" stroke-linecap="round" stroke-linejoin="round"/>
<path d="M1.5 9C1.95 9.375 2.4 9.75 3.375 9.75C5.25 9.75 5.25 8.25 7.125 8.25C9.075 8.25 8.925 9.75 10.875 9.75C12.75 9.75 12.75 8.25 14.625 8.25C15.6 8.25 16.05 8.625 16.5 9" stroke="white" stroke-linecap="round" stroke-linejoin="round"/>
<path d="M1.5 13.5C1.95 13.875 2.4 14.25 3.375 14.25C5.25 14.25 5.25 12.75 7.125 12.75C9.075 12.75 8.925 14.25 10.875 14.25C12.75 14.25 12.75 12.75 14.625 12.75C15.6 12.75 16.05 13.125 16.5 13.5" stroke="white" stroke-linecap="round" stroke-linejoin="round"/>
</svg>
